X: 1
T: My boy Tammie
O: Arr: Peter White
R: strathspey
Z: 2010 John Chambers <jc:trillian.mit.edu>
M: C
L: 1/8
K:Edor
|:"Em"E>F G>A  "D"B>c d2 | "A7"A>B     A>G  "D"F<D zF \
| "Em"E>F G>A "Bm"B>c d2 | "Em"B>g "B7"f>e "Em"B<e ze |
|  "C"e>f g>f  "G"e>d B2 | "Em"G>B "Bm"d>B  "D"A>F "Bm"D2 \
| "Em"e>g "B7"f>g "Em"e>B "B7"B2 | "C"G>A "B7"B>A "Em"G<E Ez :|
